picto/remote-bus-left-framed.svg

<svg class="color-immutable" width="30" height="30" viewBox="0 0 30 30" fill="none" xmlns="http://www.w3.org/2000/svg"><path d="M30 0H0V30H30V0Z" fill="#2D327D"/><path d="M25.5 3C26.325 3 27 3.675 27 4.5V25.5C27 26.325 26.325 27 25.5 27H4.5C3.675 27 3 26.325 3 25.5V4.5C3 3.675 3.675 3 4.5 3H25.5ZM25.5 2.625H4.5C3.46613 2.625 2.625 3.46613 2.625 4.5V25.5C2.625 26.5339 3.46613 27.375 4.5 27.375H25.5C26.5339 27.375 27.375 26.5339 27.375 25.5V4.5C27.375 3.46613 26.5339 2.625 25.5 2.625Z" fill="white"/><path d="M6.57141 19.0538C6.57141 19.2589 6.57141 21.5077 6.57141 21.5077C6.57141 21.8815 6.87456 22.1848 7.24836 22.1848H13.2416C13.6792 22.1848 13.8904 21.9404 13.8904 21.5408C13.9605 19.8724 15.3031 18.4115 17.1303 18.4115C18.8179 18.4115 20.3703 19.8103 20.3703 21.5408C20.3703 22.0078 20.6261 22.1848 21.0126 22.1848H24V17.3078H12.9313C12.7267 17.3078 12.5609 17.142 12.5609 16.9374C12.5609 16.7328 12.7267 16.567 12.9313 16.567H24V15.8868H12.9313C12.7267 15.8868 12.5609 15.721 12.5609 15.5164C12.5609 15.3118 12.7267 15.146 12.9313 15.146H24V13.6239H20.831C20.6203 13.6239 20.4496 13.4531 20.4496 13.2425V9.02843C20.4496 8.81775 20.6203 8.64698 20.831 8.64698H24V8.59733V7.75125H9.98624C9.33344 7.75125 8.65454 8.3421 8.53679 8.88795C8.53679 8.88795 7.16549 15.0413 6.60636 18.5934C6.59474 18.6672 6.57141 18.8488 6.57141 19.0538ZM12.3862 12.9398L14.2906 9.105C14.4085 8.8917 14.5798 8.64705 14.8874 8.64705H19.0912C19.3441 8.64705 19.5491 8.8521 19.5491 9.105V13.1661C19.5491 13.419 19.3441 13.6241 19.0912 13.6241H12.7462C12.4933 13.6241 12.2213 13.349 12.3862 12.9398ZM7.74749 17.06L9.40904 9.25163C9.52244 8.84145 9.73949 8.6178 10.1365 8.6178L12.8805 8.60783C13.1128 8.60783 13.2787 8.89883 13.227 9.14198C13.2177 9.18548 13.202 9.22733 13.1803 9.26633L9.04221 17.5375C8.89814 17.7971 8.60136 17.9322 8.31104 17.8703L8.26724 17.8609C7.90259 17.7833 7.66979 17.4245 7.74749 17.06Z" fill="white"/><path d="M5.36855 12.9594L5.64223 10.9858L5.64643 10.9613C5.72803 10.5683 5.85688 10.1275 6.19408 9.8376C6.4781 9.5934 6.86473 9.4845 7.44755 9.4845H7.89028L7.7504 10.2253H7.44755C6.9383 10.2253 6.76393 10.3246 6.677 10.3993C6.54598 10.512 6.45238 10.7284 6.37423 11.1L6.10228 13.0611C6.07655 13.2465 5.91785 13.3807 5.73583 13.3807C5.71888 13.3807 5.7017 13.3795 5.68445 13.3771C5.48195 13.3491 5.34043 13.162 5.36855 12.9594Z" fill="white"/><path d="M14.7817 21.6514C14.7817 20.3565 15.8353 19.303 17.1304 19.303C18.4253 19.303 19.4788 20.3566 19.4788 21.6514C19.4788 22.9465 18.4253 24 17.1304 24C15.8353 24 14.7817 22.9464 14.7817 21.6514ZM15.9148 21.6081C15.9148 22.2784 16.4602 22.8236 17.1305 22.8236C17.8006 22.8236 18.3458 22.2784 18.3458 21.6081C18.3458 20.9379 17.8006 20.3927 17.1305 20.3927C16.4602 20.3927 15.9148 20.9379 15.9148 21.6081Z" fill="white"/></svg>

<svg class="color-immutable" width="30" height="30" viewBox="0 0 30 30" fill="none" xmlns="http://www.w3.org/2000/svg"><g clip-path="url(#a)"><path d="M30 0H0v30h30V0Z" fill="#2D327D"/><path d="M25.5 3c.825 0 1.5.675 1.5 1.5v21c0 .825-.675 1.5-1.5 1.5h-21c-.825 0-1.5-.675-1.5-1.5v-21C3 3.675 3.675 3 4.5 3h21Zm0-.375h-21A1.877 1.877 0 0 0 2.625 4.5v21c0 1.034.841 1.875 1.875 1.875h21a1.877 1.877 0 0 0 1.875-1.875v-21A1.877 1.877 0 0 0 25.5 2.625Z" fill="#fff"/><path d="M6.571 19.054v2.454c0 .373.304.677.677.677h5.994c.437 0 .648-.245.648-.644.07-1.669 1.413-3.13 3.24-3.13 1.688 0 3.24 1.4 3.24 3.13 0 .467.256.644.643.644H24v-4.877H12.931a.37.37 0 1 1 0-.741H24v-.68H12.931a.37.37 0 1 1 0-.741H24v-1.522h-3.169a.381.381 0 0 1-.381-.382V9.028c0-.21.17-.381.381-.381H24v-.896H9.986c-.653 0-1.331.591-1.45 1.137 0 0-1.37 6.153-1.93 9.705a3.16 3.16 0 0 0-.035.46Zm5.815-6.114 1.905-3.835c.117-.213.289-.458.596-.458h4.204c.253 0 .458.205.458.458v4.061a.458.458 0 0 1-.458.458h-6.345c-.253 0-.525-.275-.36-.684Zm-4.639 4.12L9.41 9.252c.113-.41.33-.634.727-.634l2.745-.01c.232 0 .398.29.346.534a.448.448 0 0 1-.047.124l-4.138 8.272a.675.675 0 0 1-.731.332l-.044-.01a.675.675 0 0 1-.52-.8ZM5.369 12.96l.273-1.974.004-.025c.082-.393.21-.834.548-1.123.284-.245.67-.353 1.254-.353h.442l-.14.74h-.302c-.51 0-.684.1-.771.174-.131.113-.225.33-.303.701l-.272 1.961a.37.37 0 0 1-.733-.102Z" fill="#fff"/><path d="M14.782 21.651a2.351 2.351 0 0 1 2.348-2.348 2.351 2.351 0 0 1 2.349 2.348A2.351 2.351 0 0 1 17.13 24a2.351 2.351 0 0 1-2.348-2.349Zm1.133-.043a1.217 1.217 0 0 0 2.431 0 1.217 1.217 0 0 0-2.431 0Z" fill="#fff"/></g><defs><clipPath id="a"><path fill="#fff" d="M0 0h30v30H0z"/></clipPath></defs></svg>
